X: 3000
T: Battering Ram, The
R: jig
M: 6/8
K: Dmajor
B|:dBG BAB|dBG G2g|dBG AGE|GED D2B|
dBG BAG|B/c/dB BAG|A3 BAB|GED D2B:|
|:deg aga|bge edB|deg aga|bge ega|
bag age|ged e/f/ge|dBG ABA|1 GED D2B:|2 GED D2d||
|:B2G A2G|B2D D2d|BAG AGE|GED D2d|
B2GA2G|B/c/dB BAG|AGA BAB|GED D2d:|

